app/assets/icons/info-icon.svg

<?xml version="1.0" encoding="UTF-8"?>
<svg width="15px" height="15px" viewBox="0 0 15 15" version="1.1" xmlns="http://www.w3.org/2000/svg" xmlns:xlink="http://www.w3.org/1999/xlink">
    <!-- Generator: sketchtool 41.1 (35376) - http://www.bohemiancoding.com/sketch -->
    <title>D2BB0788-AEE8-49D4-A852-32FB9CC1402D</title>
    <desc>Created with sketchtool.</desc>
    <defs></defs>
    <g id="UI-Kit---Map" stroke="none" stroke-width="1" fill="none" fill-rule="evenodd">
        <g transform="translate(-1111.000000, -1657.000000)" id="info-icon">
            <g transform="translate(1111.000000, 1657.000000)">
                <circle id="Oval-7" fill="#284A8E" cx="7.5" cy="7.5" r="7.5"></circle>
                <path d="M8.72851562,11.3613281 L8.640625,11.7363281 C8.2812482,11.8808601 7.9941417,11.981445 7.77929688,12.0380859 C7.56445205,12.0947268 7.38086014,12.1230469 7.22851562,12.1230469 C6.91601406,12.1230469 6.68164141,12.041993 6.52539062,11.8798828 C6.36913984,11.7177726 6.29101562,11.5175793 6.29101562,11.2792969 C6.29101562,11.1894527 6.29882805,11.0957036 6.31445312,10.9980469 C6.3300782,10.9003901 6.35546857,10.7773445 6.390625,10.6289062 L7.01171875,8.13867188 C7.04296891,8.00195244 7.07324204,7.85546953 7.10253906,7.69921875 C7.13183608,7.54296797 7.14648438,7.4101568 7.14648438,7.30078125 C7.14648438,7.08203016 7.11035192,6.9365238 7.03808594,6.86425781 C6.96581995,6.79199183 6.81836049,6.75585938 6.59570312,6.75585938 C6.5097652,6.75585938 6.39550853,6.76953111 6.25292969,6.796875 C6.11035085,6.82421889 6.0019535,6.84765615 5.92773438,6.8671875 L6.015625,6.4921875 C6.32031402,6.35546807 6.59374879,6.25390658 6.8359375,6.1875 C7.07812621,6.12109342 7.26953055,6.08789062 7.41015625,6.08789062 C7.73047035,6.08789062 7.9628899,6.16406174 8.10742188,6.31640625 C8.25195385,6.46875076 8.32421875,6.67382684 8.32421875,6.93164062 C8.32421875,7.00195348 8.31640633,7.09765564 8.30078125,7.21875 C8.28515617,7.33984436 8.26171891,7.46093689 8.23046875,7.58203125 L7.60351562,10.0722656 C7.56445293,10.2246101 7.53027358,10.3740227 7.50097656,10.5205078 C7.47167954,10.6669929 7.45703125,10.7871089 7.45703125,10.8808594 C7.45703125,11.1035167 7.50683544,11.255859 7.60644531,11.3378906 C7.70605519,11.4199223 7.86718639,11.4609375 8.08984375,11.4609375 C8.16406287,11.4609375 8.27050712,11.451172 8.40917969,11.4316406 C8.54785226,11.4121093 8.6542965,11.388672 8.72851562,11.3613281 Z M9.14453125,3.87304688 C9.14453125,4.09570424 9.07226635,4.29003823 8.92773438,4.45605469 C8.7832024,4.62207114 8.6035167,4.70507812 8.38867188,4.70507812 C8.18945213,4.70507812 8.01757885,4.62597735 7.87304688,4.46777344 C7.7285149,4.30956952 7.65625,4.12890727 7.65625,3.92578125 C7.65625,3.71093643 7.7285149,3.5234383 7.87304688,3.36328125 C8.01757885,3.2031242 8.18945213,3.12304688 8.38867188,3.12304688 C8.61132924,3.12304688 8.79296805,3.19824144 8.93359375,3.34863281 C9.07421945,3.49902419 9.14453125,3.67382713 9.14453125,3.87304688 Z" id="i" fill="#FFFFFF"></path>
            </g>
        </g>
    </g>
</svg>

<svg width="15" height="15" viewBox="0 0 15 15" xmlns="http://www.w3.org/2000/svg"><title>D2BB0788-AEE8-49D4-A852-32FB9CC1402D</title><g fill="none" fill-rule="evenodd"><circle fill="#284A8E" cx="7.5" cy="7.5" r="7.5"/><path d="M8.729 11.361l-.088.375c-.36.145-.647.245-.862.302a2.218 2.218 0 0 1-.55.085c-.313 0-.547-.081-.704-.243a.832.832 0 0 1-.234-.6c0-.09.008-.184.023-.282.016-.098.041-.22.077-.37l.62-2.49c.032-.136.062-.283.092-.439.029-.156.043-.289.043-.398 0-.219-.036-.364-.108-.437-.072-.072-.22-.108-.442-.108-.086 0-.2.014-.343.04a5.29 5.29 0 0 0-.325.071l.088-.375a5.76 5.76 0 0 1 .82-.304c.242-.067.434-.1.574-.1.32 0 .553.076.697.228.145.153.217.358.217.616a2.978 2.978 0 0 1-.094.65l-.626 2.49c-.04.153-.074.302-.103.449-.03.146-.044.266-.044.36 0 .223.05.375.15.457.1.082.26.123.483.123.074 0 .18-.01.32-.03a1.63 1.63 0 0 0 .319-.07zm.416-7.488a.86.86 0 0 1-.217.583.686.686 0 0 1-.54.25c-.199 0-.37-.08-.515-.238a.813.813 0 0 1 0-1.104.672.672 0 0 1 .516-.241c.222 0 .404.075.545.226.14.15.21.325.21.524z" fill="#FFF"/></g></svg>
